X: 22654
T: Lake Dance
R: jig
M: 6/8
K: Gmajor
|:B>eB dBA|GFG AFD|GBd e2 f|gbg afd|
edB GAB|EAG FED|edB dBA|BAG E3:|
BeB e2 d|Bef g2 b|afd afd|bag fed|
eBe fef|gfg aga|bag fed|Beg egb|
BeB e/g/ed|Bef g2 b|afd afd|bag fge|
dAB eAB|fAB gfe|dBA B/d/Be|GBe E3||

